packages/merlin-www-assets/imports/houseandgarden/icons/figure-googleplus.svg

<svg viewBox="0 0 20 20" xmlns="http://www.w3.org/2000/svg"><path d="m6.41 9.14v2.12h3.59c-.47 2.74-4.21 3.63-6.1 1.88a4 4 0 0 1 .1-6.37 4.32 4.32 0 0 1 5 .12l1.61-1.63a6 6 0 0 0 -4.22-1.62 6.34 6.34 0 0 0 -2.39 12.24 6.18 6.18 0 0 0 7.28-1.88 7.54 7.54 0 0 0 1.25-4.85zm11.73 0v-1.87h-1.75v2h-1.87v1.73h1.87v1.77h1.75v-1.88h1.86v-1.75z"/></svg>

<svg xmlns="http://www.w3.org/2000/svg" viewBox="0 0 20 20"><title>figure-googleplus</title><path d="M6.41,9.14v2.12H10C9.53,14,5.79,14.89,3.9,13.14A4,4,0,0,1,4,6.77a4.32,4.32,0,0,1,5,.12l1.61-1.63A6,6,0,0,0,6.39,3.64,6.34,6.34,0,0,0,4,15.88,6.18,6.18,0,0,0,11.28,14a7.54,7.54,0,0,0,1.25-4.85Zm11.73,0V7.27H16.39v2H14.52V11h1.87v1.77h1.75V10.89H20V9.14H18.14"/></svg>
